files/2/96x96/places/folder-saved-search.svg

<?xml version="1.0" encoding="UTF-8" standalone="no"?>
<svg
   xmlns:dc="http://purl.org/dc/elements/1.1/"
   xmlns:cc="http://creativecommons.org/ns#"
   xmlns:rdf="http://www.w3.org/1999/02/22-rdf-syntax-ns#"
   xmlns:svg="http://www.w3.org/2000/svg"
   xmlns="http://www.w3.org/2000/svg"
   xmlns:sodipodi="http://sodipodi.sourceforge.net/DTD/sodipodi-0.dtd"
   xmlns:inkscape="http://www.inkscape.org/namespaces/inkscape"
   width="96"
   viewBox="0 0 96 96"
   height="96"
   id="svg3051"
   version="1.1"
   inkscape:version="0.48.5 r10040"
   sodipodi:docname="folder-saved-search.svg">
  <metadata
     id="metadata3069">
    <rdf:RDF>
      <cc:Work
         rdf:about="">
        <dc:format>image/svg+xml</dc:format>
        <dc:type
           rdf:resource="http://purl.org/dc/dcmitype/StillImage" />
      </cc:Work>
    </rdf:RDF>
  </metadata>
  <defs
     id="defs3067" />
  <sodipodi:namedview
     pagecolor="#ffffff"
     bordercolor="#666666"
     borderopacity="1"
     objecttolerance="10"
     gridtolerance="10"
     guidetolerance="10"
     inkscape:pageopacity="0"
     inkscape:pageshadow="2"
     inkscape:window-width="1280"
     inkscape:window-height="998"
     id="namedview3065"
     showgrid="false"
     inkscape:zoom="4.9166665"
     inkscape:cx="47.24899"
     inkscape:cy="20.873021"
     inkscape:window-x="0"
     inkscape:window-y="0"
     inkscape:window-maximized="1"
     inkscape:current-layer="svg3051" />
  <path
     style="font-size:medium;font-style:normal;font-variant:normal;font-weight:normal;font-stretch:normal;text-indent:0;text-align:start;text-decoration:none;line-height:normal;letter-spacing:normal;word-spacing:normal;text-transform:none;direction:ltr;block-progression:tb;writing-mode:lr-tb;text-anchor:start;baseline-shift:baseline;color:#000000;fill:#e9b080;fill-opacity:1;fill-rule:nonzero;stroke:none;stroke-width:1;marker:none;visibility:visible;display:inline;overflow:visible;enable-background:accumulate;font-family:Sans;-inkscape-font-specification:Sans"
     d="m 12.000042,12.000036 c -1.999999,0 -3.9999984,1.999999 -3.9999984,3.999998 l 0,3.999998 -1.999999,0 c -1.999999,0 -4.0111364,1.898413 -3.9999986,3.999998 l 0,55.999972 C 2.0003021,82.241469 4.0755716,83.9998 6.3750445,84 L 89.625002,84 C 92,84 94,82.000001 94,80.000002 l 0,-49.999975 c 0,-1.999999 -2,-3.999998 -3.999998,-3.999998 l -3.999998,0 0,-9.999995 c 0,-1.999999 -1.999999,-3.999998 -3.999998,-3.999998 z"
     id="path3770"
     inkscape:connector-curvature="0"
     sodipodi:nodetypes="sscsccccccccsss" />
  <path
     inkscape:connector-curvature="0"
     style="font-size:medium;font-style:normal;font-variant:normal;font-weight:normal;font-stretch:normal;text-indent:0;text-align:start;text-decoration:none;line-height:normal;letter-spacing:normal;word-spacing:normal;text-transform:none;direction:ltr;block-progression:tb;writing-mode:lr-tb;text-anchor:start;baseline-shift:baseline;color:#000000;fill:#000000;fill-opacity:0.32156863;fill-rule:nonzero;stroke:none;stroke-width:1;marker:none;visibility:visible;display:inline;overflow:visible;enable-background:accumulate;font-family:Sans;-inkscape-font-specification:Sans"
     d="m 12.000042,12.000036 c -1.999999,0 -3.9999984,1.999999 -3.9999984,3.999998 l 0,3.999998 -1.999999,0 c -1.999999,0 -4.0111364,1.898413 -3.9999986,3.999998 l 0,55.999972 C 2.0003021,82.241469 4.0755716,83.9998 6.3750445,84 L 89.625002,84 C 92,84 94,82.000001 94,80.000002 l 0,-49.999975 c 0,-1.999999 -2,-3.999998 -3.999998,-3.999998 l -3.999998,0 0,-9.999995 c 0,-1.999999 -1.999999,-3.999998 -3.999998,-3.999998 l -69.999964,0 z m -5.9999974,9.999995 47.9999754,0 c 1.014627,0 1.999999,0.988334 1.999999,1.999999 l 0,3.999998 33.999983,0 C 91.081718,28.000028 92,28.943646 92,30.000027 l 0,49.999975 c 0,1.107509 -0.904228,1.999999 -1.999998,1.999999 l -83.9999574,0 c -1.0254514,0 -1.999999,-0.892492 -1.999999,-1.999999 l 0,-55.999972 c 0,-1.086636 0.9580836,-1.999999 1.999999,-1.999999 z"
     id="path3779" />
  <path
     id="path4156"
     d="m 60.752228,43.234122 c -4.330295,-4.331798 -11.331969,-4.304797 -15.662277,0.032 -3.682129,3.683198 -4.233934,9.289596 -1.659936,13.551194 L 32.747533,67.503508 c -0.99673,0.997 -0.99673,2.591599 0,3.588599 l 0.160639,0.159999 c 0.996732,0.9972 2.590869,0.9972 3.587601,0 L 47.178255,60.566112 c 4.266158,2.580798 9.891855,2.049799 13.573982,-1.633597 4.33031,-4.331398 4.330304,-11.362395 0,-15.693993 z m -2.43635,2.436799 c 2.978403,2.979599 2.978372,7.840796 0,10.819795 -2.950521,2.951598 -7.724668,2.950399 -10.709251,0.054 l -0.08034,-0.08 c -0.02664,-0.032 -0.05424,-0.054 -0.08034,-0.082 -2.899278,-2.984799 -2.87152,-7.733396 0.08034,-10.685595 2.978371,-2.979798 7.811174,-3.006598 10.789575,-0.032 z"
     style="line-height:normal;color:#000000;fill:#000000;fill-opacity:0.32156863"
     inkscape:connector-curvature="0" />
</svg>

<svg xmlns="http://www.w3.org/2000/svg" xmlns:xlink="http://www.w3.org/1999/xlink" width="96px" height="96px" viewBox="0 0 96 96" version="1.1">
<g id="surface1">
<path style=" stroke:none;fill-rule:nonzero;fill:rgb(91.372549%,69.019608%,50.196078%);fill-opacity:1;" d="M 12 12 C 10 12 8 14 8 16 L 8 20 L 6 20 C 4 20 1.988281 21.898438 2 24 L 2 80 C 2 82.242188 4.074219 84 6.375 84 L 89.625 84 C 92 84 94 82 94 80 L 94 30 C 94 28 92 26 90 26 L 86 26 L 86 16 C 86 14 84 12 82 12 Z M 12 12 "/>
<path style=" stroke:none;fill-rule:nonzero;fill:rgb(0%,0%,0%);fill-opacity:0.321569;" d="M 60.761719 43.234375 C 56.425781 38.902344 49.421875 38.929688 45.089844 43.265625 C 41.402344 46.949219 40.851562 52.554688 43.425781 56.816406 L 32.738281 67.503906 C 31.742188 68.5 31.742188 70.09375 32.738281 71.09375 L 32.898438 71.253906 C 33.894531 72.25 35.492188 72.25 36.488281 71.253906 L 47.179688 60.566406 C 51.445312 63.148438 57.074219 62.617188 60.761719 58.933594 C 65.09375 54.601562 65.09375 47.570312 60.761719 43.238281 Z M 58.320312 45.671875 C 61.300781 48.652344 61.300781 53.511719 58.320312 56.492188 C 55.371094 59.441406 50.59375 59.441406 47.605469 56.542969 L 47.527344 56.464844 C 47.5 56.433594 47.472656 56.410156 47.445312 56.382812 C 44.542969 53.398438 44.574219 48.648438 47.527344 45.695312 C 50.507812 42.71875 55.34375 42.691406 58.320312 45.664062 Z M 58.320312 45.671875 "/>
<path style=" stroke:none;fill-rule:nonzero;fill:rgb(0%,0%,0%);fill-opacity:0.321569;" d="M 12 12 C 10 12 8 14 8 16 L 8 20 L 6 20 C 4 20 1.988281 21.898438 2 24 L 2 80 C 2 82.242188 4.074219 84 6.375 84 L 89.625 84 C 92 84 94 82 94 80 L 94 30 C 94 28 92 26 90 26 L 86 26 L 86 16 C 86 14 84 12 82 12 Z M 6 22 L 54 22 C 55.015625 22 56 22.988281 56 24 L 56 28 L 90 28 C 91.082031 28 92 28.945312 92 30 L 92 80 C 92 81.109375 91.097656 82 90 82 L 6 82 C 4.972656 82 4 81.109375 4 80 L 4 24 C 4 22.914062 4.957031 22 6 22 Z M 6 22 "/>
</g>
</svg>
